movie-explorer/src/images/background-about.svg

<svg width="320" height="230" viewBox="0 0 320 230" fill="none" xmlns="http://www.w3.org/2000/svg">
<path opacity="0.7" fill-rule="evenodd" clip-rule="evenodd" d="M0 224.62C8.95922 221.404 18.0874 216.793 27.1044 210.911C30.1393 214.796 33.6963 218.192 37.7802 221.02C60.0435 236.437 92.6759 231.321 123.966 210.894C127.005 214.786 130.568 218.187 134.659 221.02C156.924 236.433 189.554 231.324 220.847 210.912C223.882 214.796 227.439 218.192 231.522 221.02C253.786 236.437 286.419 231.321 317.709 210.893C318.442 211.832 319.206 212.743 320 213.623V210.549C319.793 210.296 319.588 210.041 319.386 209.783C319.59 209.646 319.795 209.508 320 209.369V206.947C319.394 207.365 318.788 207.778 318.181 208.185C309.22 195.784 305.33 178.501 306.592 158.644C307.625 142.383 312.117 124.531 320 106.524V101.662C300.577 143.398 299.046 185.05 316.507 209.291C310.263 213.361 303.971 216.808 297.729 219.591C273.101 230.575 249.601 231.107 232.665 219.378C228.805 216.705 225.424 213.491 222.524 209.802C226.105 207.4 229.666 204.797 233.19 202.003V199.442C229.272 202.609 225.307 205.533 221.319 208.204C212.351 195.802 208.457 178.511 209.719 158.644C211.423 131.831 222.526 100.693 242.728 71.6647C257.355 50.6467 274.689 33.6998 292.475 21.785C299.776 31.8718 303.716 45.1941 304.255 60.5071H306.257C305.718 44.9059 301.712 31.1621 294.149 20.6792C300.379 16.6228 306.656 13.1856 312.882 10.4087C315.267 9.34515 317.641 8.37959 320 7.51367V5.38887C311.057 8.60218 301.947 13.2066 292.947 19.0778C289.912 15.1977 286.357 11.8057 282.276 8.98019C260.001 -6.43983 227.35 -1.31916 196.044 19.1167C193.005 15.2204 189.44 11.8151 185.347 8.98019C163.094 -6.43014 130.481 -1.32559 99.2037 19.0782C96.1695 15.198 92.614 11.8058 88.5324 8.98019C66.2577 -6.43989 33.6068 -1.31912 2.30099 19.1169C1.56478 18.1733 0.797811 17.2584 0 16.3735V19.4476C0.210634 19.7049 0.41884 19.9646 0.624618 20.2268C0.416342 20.3666 0.208135 20.5071 0 20.6483V23.07C0.608851 22.6493 1.21833 22.2345 1.82834 21.8255C10.7811 34.2256 14.6673 51.5045 13.4061 71.3557C12.3729 87.6184 7.88177 105.472 0 123.482V128.344C19.4162 86.6125 20.9504 44.9634 3.50186 20.7194C9.7541 16.6454 16.0536 13.1945 22.303 10.4084C46.9393 -0.574862 70.4473 -1.10711 87.3897 10.6216C91.2478 13.2925 94.6276 16.5037 97.5266 20.1878C79.5408 32.2546 62.0674 49.3662 47.3415 70.5261C11.9182 121.426 4.05342 178.995 25.9023 209.31C19.6647 213.371 13.3802 216.812 7.1456 219.592C4.75141 220.659 2.36788 221.628 0 222.496V224.62ZM27.5763 208.204C18.6084 195.802 14.715 178.511 15.9772 158.644C17.6807 131.831 28.7841 100.693 48.9857 71.6647C63.6127 50.647 80.9465 33.7002 98.7324 21.7854C106.033 31.8722 109.973 45.1944 110.511 60.5071H112.514C111.975 44.9062 107.969 31.1625 100.407 20.6797C106.637 16.623 112.913 13.1857 119.14 10.4087C143.768 -0.574595 167.268 -1.10674 184.204 10.6218C188.075 13.3019 191.463 16.5263 194.368 20.2265C176.397 32.2912 158.939 49.3889 144.224 70.5261C108.796 121.416 100.924 178.972 122.765 209.292C116.52 213.361 110.229 216.808 103.987 219.591C79.3589 230.575 55.8591 231.107 38.9227 219.378C35.0623 216.705 31.6811 213.49 28.7812 209.802C32.3625 207.399 35.9235 204.797 39.4465 202.003V199.442C35.5294 202.608 31.5642 205.533 27.5763 208.204ZM281.133 10.6216C284.991 13.2924 288.37 16.5034 291.269 20.1873C273.283 32.2542 255.81 49.366 241.084 70.5261C205.66 121.426 197.796 178.996 219.645 209.31C213.407 213.371 207.123 216.812 200.889 219.592C176.252 230.575 152.745 231.107 135.802 219.378C131.934 216.701 128.547 213.48 125.643 209.784C143.614 197.719 161.071 180.617 175.786 159.474C211.198 108.59 219.069 51.0414 197.245 20.7192C203.497 16.6452 209.797 13.1945 216.046 10.4084C240.682 -0.574862 264.19 -1.10711 281.133 10.6216ZM124.438 208.185C142.209 196.272 159.526 179.336 174.141 158.335C194.343 129.307 205.446 98.1688 207.15 71.3557C208.411 51.5044 204.525 34.2254 195.572 21.8253C177.801 33.738 160.484 50.6703 145.868 71.6645C125.66 100.692 114.553 131.831 112.849 158.644C111.587 178.501 115.477 195.784 124.438 208.185Z" fill="#4A4A4A"/>
</svg>

<svg width="320" height="230" fill="none" xmlns="http://www.w3.org/2000/svg"><path opacity=".7" fill-rule="evenodd" clip-rule="evenodd" d="M0 224.62c8.96-3.216 18.087-7.827 27.104-13.709 3.035 3.885 6.592 7.281 10.676 10.109 22.264 15.417 54.896 10.301 86.186-10.126a48.724 48.724 0 0 0 10.693 10.126c22.265 15.413 54.895 10.304 86.188-10.108 3.035 3.884 6.592 7.28 10.675 10.108 22.264 15.417 54.897 10.301 86.187-10.127a50.03 50.03 0 0 0 2.291 2.73v-3.074a45.708 45.708 0 0 1-.614-.766l.614-.414v-2.422c-.606.418-1.212.831-1.819 1.238-8.961-12.401-12.851-29.684-11.589-49.541 1.033-16.261 5.525-34.113 13.408-52.12v-4.862c-19.423 41.736-20.954 83.388-3.493 107.629-6.244 4.07-12.536 7.517-18.778 10.3-24.628 10.984-48.128 11.516-65.064-.213-3.86-2.673-7.241-5.887-10.141-9.576a166.285 166.285 0 0 0 10.666-7.799v-2.561a164.74 164.74 0 0 1-11.871 8.762c-8.968-12.402-12.862-29.693-11.6-49.56 1.704-26.813 12.807-57.951 33.009-86.98 14.627-21.017 31.961-37.964 49.747-49.879 7.301 10.087 11.241 23.41 11.78 38.722h2.002c-.539-15.601-4.545-29.345-12.108-39.828 6.23-4.056 12.507-7.493 18.733-10.27A113.614 113.614 0 0 1 320 7.514V5.389c-8.943 3.213-18.053 7.818-27.053 13.689-3.035-3.88-6.59-7.272-10.671-10.098-22.275-15.42-54.926-10.3-86.232 10.137A48.69 48.69 0 0 0 185.347 8.98C163.094-6.43 130.481-1.326 99.204 19.078A48.7 48.7 0 0 0 88.532 8.98C66.258-6.44 33.607-1.32 2.301 19.117A50.341 50.341 0 0 0 0 16.373v3.075c.21.257.419.517.625.779L0 20.648v2.422c.609-.42 1.218-.835 1.828-1.244 8.953 12.4 12.84 29.678 11.578 49.53C12.373 87.618 7.882 105.472 0 123.482v4.862c19.416-41.731 20.95-83.38 3.502-107.625 6.252-4.074 12.552-7.525 18.801-10.31C46.939-.576 70.447-1.108 87.39 10.621c3.858 2.67 7.238 5.882 10.137 9.566-17.986 12.067-35.46 29.178-50.185 50.338-35.424 50.9-43.289 108.469-21.44 138.784-6.237 4.061-12.522 7.502-18.756 10.282A113.698 113.698 0 0 1 0 222.496v2.124zm27.576-16.416c-8.968-12.402-12.861-29.693-11.599-49.56 1.704-26.813 12.807-57.951 33.009-86.98C63.613 50.648 80.946 33.7 98.732 21.786c7.301 10.087 11.241 23.41 11.779 38.722h2.003c-.539-15.6-4.545-29.344-12.107-39.827 6.23-4.057 12.506-7.494 18.733-10.271 24.628-10.984 48.128-11.516 65.064.213 3.871 2.68 7.259 5.904 10.164 9.605-17.971 12.064-35.429 29.162-50.144 50.3-35.428 50.889-43.3 108.445-21.459 138.765-6.245 4.069-12.536 7.516-18.778 10.299-24.628 10.984-48.128 11.516-65.064-.213-3.86-2.673-7.242-5.888-10.142-9.576a166.293 166.293 0 0 0 10.666-7.799v-2.561a164.85 164.85 0 0 1-11.87 8.762zM281.133 10.622c3.858 2.67 7.237 5.881 10.136 9.565-17.986 12.067-35.459 29.179-50.185 50.34-35.424 50.899-43.288 108.469-21.439 138.783-6.238 4.061-12.522 7.502-18.756 10.282-24.637 10.983-48.144 11.515-65.087-.214-3.868-2.677-7.255-5.898-10.159-9.594 17.971-12.065 35.428-29.167 50.143-50.31 35.412-50.884 43.283-108.433 21.459-138.755 6.252-4.074 12.552-7.525 18.801-10.31 24.636-10.984 48.144-11.516 65.087.213zM124.438 208.185c17.771-11.913 35.088-28.849 49.703-49.85 20.202-29.028 31.305-60.166 33.009-86.98 1.261-19.85-2.625-37.13-11.578-49.53-17.771 11.913-35.088 28.845-49.704 49.84-20.208 29.027-31.315 60.166-33.019 86.979-1.262 19.857 2.628 37.14 11.589 49.541z" fill="#4A4A4A"/></svg>
